assets/images/twitter-icon.svg

<svg width="50" height="41" viewBox="0 0 50 41">
  <path d="M49.837 5.065c-1.81.805-3.76 1.348-5.805 1.59 2.088-1.25 3.69-3.23 4.444-5.59-1.953 1.158-4.115 2-6.418 2.453C40.215 1.554 37.588.326 34.68.326c-5.58 0-10.105 4.525-10.105 10.107 0 .79.09 1.562.262 2.303-8.4-.422-15.848-4.445-20.833-10.56-.87 1.492-1.368 3.228-1.368 5.082 0 3.506 1.784 6.6 4.496 8.412-1.656-.053-3.215-.508-4.578-1.265v.128c0 4.896 3.483 8.98 8.107 9.91-.845.23-1.74.354-2.66.354-.652 0-1.285-.063-1.902-.182 1.287 4.015 5.02 6.938 9.44 7.02-3.458 2.71-7.815 4.326-12.55 4.326-.816 0-1.62-.045-2.412-.14 4.474 2.87 9.786 4.54 15.493 4.54 18.59 0 28.755-15.4 28.755-28.754 0-.438-.01-.875-.028-1.31 1.974-1.42 3.688-3.202 5.042-5.23z" fill="#D81128" fill-rule="evenodd"/>
</svg>

<?xml version="1.0" encoding="UTF-8"?>
<svg width="50px" height="41px" viewBox="0 0 50 41" version="1.1" xmlns="http://www.w3.org/2000/svg" xmlns:xlink="http://www.w3.org/1999/xlink">
    <!-- Generator: Sketch 41 (35326) - http://www.bohemiancoding.com/sketch -->
    <title>Shape</title>
    <desc>Created with Sketch.</desc>
    <defs></defs>
    <g id="Page-1" stroke="none" stroke-width="1" fill="none" fill-rule="evenodd">
        <g id="1479189381_03-twitter" fill="#D81128">
            <path d="M49.837,5.065 C48.026,5.87 46.077,6.413 44.032,6.656 C46.12,5.406 47.721,3.426 48.476,1.064 C46.523,2.223 44.361,3.064 42.058,3.518 C40.215,1.554 37.588,0.326 34.681,0.326 C29.1,0.326 24.575,4.851 24.575,10.433 C24.575,11.224 24.664,11.995 24.837,12.736 C16.437,12.314 8.989,8.291 4.004,2.176 C3.134,3.668 2.636,5.404 2.636,7.258 C2.636,10.764 4.42,13.858 7.132,15.67 C5.476,15.617 3.917,15.162 2.554,14.405 C2.553,14.447 2.553,14.49 2.553,14.533 C2.553,19.429 6.037,23.513 10.661,24.443 C9.813,24.673 8.92,24.797 7.998,24.797 C7.346,24.797 6.713,24.734 6.096,24.615 C7.383,28.63 11.115,31.553 15.537,31.634 C12.078,34.345 7.721,35.961 2.985,35.961 C2.17,35.961 1.365,35.913 0.574,35.819 C5.048,38.688 10.36,40.36 16.067,40.36 C34.658,40.36 44.823,24.96 44.823,11.604 C44.823,11.166 44.814,10.729 44.795,10.295 C46.769,8.873 48.483,7.092 49.837,5.065 Z" id="Shape"></path>
        </g>
    </g>
</svg>
